!!!!SEGMENT: pl-kj--bj-muz-1603-iii-1--001-001_zelenski-wladyslaw--sechs-charakterstucke-op-17-no-1-praeludium.krn
!!!cenid: 18xx:3680
!!!COM: Żeleński, Władysław
!!!COM-rismID: pe41024455
!!!CDT: 1837/07/06-1921/01/23
!!!CNT: Polish
!!!GTL: Sechs Charakterstücke op. 17
!!!OTL: No. 1 Praeludium
!!!OMV: 001
!!!PDT: 1872
!!!AGN:
!!!YEC: Copyright 2022 Narodowy Instytut Fryderyka Chopina (https://polishscores.org)
!!!YEM: License CC-BY-4.0 (https://creativecommons.org/licenses/by/4.0)
!!!SMS-siglum: PL-Kj
!!!SMS-shelfmark: BJ Muz. 1603 III 1
!!!SMS-shelfwork: 001-001 G
!!!SMS-variant:
!!!SMS-altvar:
!!!NIFC-rismSourceID:
!!!NIFC-rismChildID:
!!!NIFC-islandoraID: none
!!!URL-pdf-islandora:
!!!URL-scan: https://polona2.pl/item/sechs-charakterstucke-fur-pianoforte-op-17-h-1,MTIzNzQyODQ1/0 @EN{Scan on Polona} @PL{Skany w portalu Polona}
!!!IIIF:
!!!ONB-nifc:
!!!AIN: 1 piano
!!!key: c
!!!OMD: Lento.
**kern	**kern	**dynam
*part1	*part1	*
*staff2	*staff1	*
*I"	*	*
*I'	*	*
*Ipiano	*Ipiano	*
*ICklav	*ICklav	*
*clefF4	*clefG2	*
*k[b-e-a-]	*k[b-e-a-]	*
*c:	*c:	*
*M3/4	*M3/4	*
=1	=1	=1
*	*^	*
[2.C [2.CC/	4r	8r	p
.	.	8c\L	.
!	!	!LO:TX:b:i:t=ben cantabile e legato	!
.	(4cc/	8a-\	.
.	.	8g\	.
.	4dd/	8f#X\	.
.	.	8d\J	.
=2	=2	=2	=2
2.C] 2.CC/]	2.g/)	8fn\L	.
.	.	8d\	.
.	.	8e- 8c\	.
.	.	8d 8Bn\	.
.	.	8e- 8c\	.
.	.	8fJ 8d\	.
=3	=3	=3	=3
[2.C [2.CC/	(4g/	8e-\L	.
.	.	8c\	.
.	4cc/	8a-\	.
.	.	8g\	.
.	4dd/	8f#X\	.
.	.	8d\J	.
=4	=4	=4	=4
2.C_ 2.CC/_	2.g/)	8fn\L	.
.	.	8d\	.
.	.	8e- 8c\	.
.	.	8d 8Bn\	.
.	.	8e- 8c\	.
.	.	8fJ 8d\	.
=5	=5	=5	=5
4C] 4CC/]	(4g/	8e-\L	<
.	.	8c\	.
4AA-/	4cc/	8a-\	.
.	.	8g\	.
4BB-/	4dd/	8f#X\	.
.	.	8fn\J	[[
!LO:LB:g=original	!LO:LB:g=original	!LO:LB:g=original	!
=6	=6	=6	=6
!	!	!	!LO:HP:b:t=crescendo
(4.C/	4ee-/	8e-\L	<
.	.	16f\L	.
.	.	16g\JJ	.
.	4.ff/	8a-\L	.
8C-X/L	.	8ee-\	.
8BB-/	.	8dd\	.
8AA-/J)	32gg/LLL	8cc\J	.
.	32ff/	.	.
.	32ee-/	.	.
.	32ff/JJJ	.	.
=7	=7	=7	=7
(8GG/L	4gg/	8bn\L	.
8E-/	.	8g\	.
8D/	4.ff/	8a-\	.
8Cn/	.	8ee-\	.
8BB-/	.	8dd\	.
8AA-/J)	32gg/LLL	8cc\J	.
.	32ff/	.	.
.	32ee-/	.	.
.	32ff/JJJ	.	.
=8	=8	=8	=8
(8GG\L	2.gg/)	8bn\L	>
8G\	.	16cc\L	.
.	.	16dd\JJ	.
8c\	.	(>8ee-\L	.
8f\	.	8dd\	.
8e-\	.	8cc\	.
8Bn\J	.	8dd\J)	]
=9	=9	=9	=9
8c\L	(8gg/L	4.ee-\	p
8F\	8aa-/J	.	.
8B-X\	4ff/	.	.
8A-\	.	8cc\	.
8G\	8bb-/L	[4dd\	.
8F\J)	8aa-/J	.	.
!LO:LB:g=original	!LO:LB:g=original	!LO:LB:g=original	!
=10	=10	=10	=10
(8E-\L	4.gg/	8dd\L]	.
8B-\	.	8g\J	.
8A-\	.	[2cc\	.
8G\	8ee-/	.	.
8F\	8aa-/L	.	.
8E-\J	8gg/J	.	.
=11	=11	=11	=11
8D\L	4.ff/	8cc\L]	.
8A-\	.	8f\J	.
8G\	.	4.b-\	.
8F\	8dd/	.	.
8E-\	8gg/L	.	.
8D\J)	8ff/J)	8bn\	.
=12	=12	=12	=12
(4C/	(4ee-/	8cc\L	.
.	.	16an\L	>
.	.	16g\JJ	.
4D/	8ddL 8f#X/	2ryy	.
.	8cc 8e-/	.	.
4FF#X/	8b- 8d/	.	.
.	8a 8c/)J	.	]
*	*v	*v	*
=13	=13	=13
4GG/)	(>8g 8B-/L	.
!	!LO:TX:b:i:t=espressivo	!
.	8dd 8b-/	.
(4G\	8ee- 8g/	.
.	8dd 8b-/	.
4An\	8cc#X 8en/	.
.	8anJ 8g/)	.
=14	=14	=14
*^	*	*
2.D/)	4r	(8ddL 8f#X/	.
.	.	8cc 8e-/	.
.	4DD\	8b- 8d/	.
.	.	8an 8c/	.
.	[>4D\	8g 8B-/	.
.	.	8fnJ 8An/)	.
!LO:LB:g=original	!LO:LB:g=original	!LO:LB:g=original	!
=15	=15	=15	=15
4ryy	4D/] 4GG/	(8gL 8B-/	.
.	.	8dd 8b-/	.
(>4G/	2ryy	8ee- 8g/	.
.	.	8dd 8b-/	.
4An/	.	8cc#X 8en/	.
.	.	8anJ 8g/)	.
=16	=16	=16	=16
2.D/)	4r	(8ddL 8f#X/	.
.	.	8cc 8e-/	.
.	4DD\	8b- 8d/	.
.	.	8an 8c/	.
.	[>4D\	8g 8B-/	.
.	.	8f#J 8An/)	.
=17	=17	=17	=17
4ryy	4D/] 4GG/	(8gL 8B-/	<
.	.	8dd 8b-/	.
(>4G/	2ryy	8ee- 8g/	.
.	.	8dd 8b-/	.
4An/	.	8gg 8cc/	.
.	.	8ff#XJ 8ee-/)	[
*v	*v	*	*
=18	=18	=18
!	!	!LO:HP:b:t=crescendo
4B-/)	(8aanL 8dd\	<
.	8ff#X 8ee-\	.
(4.B-/	8gg 8dd\	.
.	8bb- 8dd-X\	.
.	8gg 8b-\	.
32c/LLL	8ffn 8a-X\J	.
32B-/	.	.
32A-X/	.	.
32B-/JJJ	.	.
=19	=19	=19
*^	*	*
4c/)	4ryy	8een 8g\L	.
.	.	8cc 8en\	.
(4.B-/	(2D-X\	8gg 8b-\	.
.	.	8ff 8a-\	.
.	.	8ee 8g\	.
32c/LLL	.	8ffJ 8f\)	.
32B-/	.	.	.
32A-/	.	.	.
32B-/JJJ	.	.	.
!LO:LB:g=original	!LO:LB:g=original	!LO:LB:g=original	!
=20	=20	=20	=20
(<4.c/)	4C\)	(8ccL 8en\	.
.	.	8een 8g\	.
.	4r	8gg 8b-\	.
8en/	.	8bb- 8dd-X\	.
8f/L	4r	8aa- 8cc\	.
8g/J)	.	8eeJ 8b-\)	.
*v	*v	*	*
=21	=21	=21
*	*^	*
(4.a-/	(8ff/L	4.cc\	p
.	8ccc/	.	.
.	8aa-/	.	.
8B-/L	8dd/	8cc\L	.
8c/	8ee-/	8b-\	.
8d/J)	8ff/J)	8a-\J	.
=22	=22	=22	=22
(<4.e-\	(8gg/L	4.g\	.
.	8bb-/	.	.
.	8ee-/	.	.
8F\L	8a-/	8g\L	<
8G\	8b-/	8f\	.
8A-\J	8cc/J	8e-\J	.
=23	=23	=23	=23
*^	*	*	*
!	!LO:TX:t=P:problem=błędne wyświetlanie łuku	!	!	!
2.BB-\)	(8A-/L	8cc/	8d\L	.
.	8G/J	4b-/	8en\	.
.	4F/	.	8f\	.
.	.	8a-/L	8c\	[ >
.	8B-/L	8g/	8c#X\	.
.	8A-/J)	8f/J	8d\J	.
=24	=24	=24	=24	=24
*ped	*	*	*	*
!	!LO:TX:t=P:problem=błędne wyświetlanie łuku	!	!	!
4G/	(>8EE-\L	4e-/)	4e-\	] pp
.	8BB-\	.	.	.
2ryy	8G\	4r	4ryy	.
.	8BB-\	.	.	.
.	8G\	4r	4ryy	.
.	8BB-\J)	.	.	.
*v	*v	*	*	*
*	*v	*v	*
!LO:PB:g=original	!LO:PB:g=original	!LO:PB:g=original
=25	=25	=25
8EE-/L	8r	.
8BB-/	(4dd-X 4d-X^>/	sf
8F/	.	.
*Xped	*	*
8BB-/	4a- 4A-/	.
8F-X/	.	.
8BB-/J	8g 8G/)	.
=26	=26	=26
*ped	*	*
8EE-/L	8r	.
8BB-/	(4dd-X 4d-X^>/	sf
8E-/	.	.
!	!	!LO:HP:b:t=crescendo sempre
8BB-/	4g 4G/	<
*Xped	*	*
8D-X/	.	.
8AA-/J	[8f [8F/)	.
=27	=27	=27
8GG/L	(>8f] 8F/]	.
8BB-/	4e- 4E-/	.
8D-X/	.	.
8BB-/	8gL 8G/	.
8GG/	8b- 8B-/	.
8FF/J	8dd-XJ 8d-X/	.
=28	=28	=28
*	*^	*
8EEn/L	2cc/	8c\L	.
8GG/	.	8b-\	.
8FF/	.	8a-\	.
8C/	.	8f\	.
8A-/	4ryy	8d-X\	.
8C/J	.	8c\J)	.
*	*v	*v	*
=29	=29	=29
*ped	*	*
8AA-\L	8r	.
8E-\	(>\4gg-X 4g-X^>\	f
8B-\	.	.
8E-\	4dd-X 4d-X/	.
*Xped	*	*
8B--\	.	.
8E-\J	8cc 8c/)	.
!LO:LB:g=original	!LO:LB:g=original	!
=30	=30	=30
*ped	*	*
8AA-\L	8r	.
8E-\	(>4gg-X 4g-X^>\	p
8A-\	.	.
8E-\	4cc 4c/	.
8G-X\	.	.
*Xped	*	*
8D-X\J	[8b- [8B-/)	.
=31	=31	=31
8C\L	(>8b-] 8B-/]	.
8E-\	4a- 4A-/	pp
8G-X\	.	.
8E-\	8ccL 8c/	.
8C\	8ee- 8e-/	.
8BB-\J	8gg-XJ 8g-X/	.
=32	=32	=32
*	*^	*
8AAn\L	2ff/	8f\L	.
8C\	.	8ee-\	.
8BB-\	.	8dd-X\	.
8F\	.	8b-\	.
8d-X\	4ryy	8g-X\	.
8F\J	.	8f\J)	.
=33	=33	=33	=33
8GG-X\L	4b-/	8g-X\L	p
8B-\	.	8d-X\	.
8A-\	(4.cc/	8e-\	.
8G-X\	.	8b-\	.
8F\	.	8a-\	.
8E-\J	32dd-X/LLL	8g-\J	.
.	32cc/	.	.
.	32b-/	.	.
.	32cc/JJJ	.	.
!LO:LB:g=original	!LO:LB:g=original	!LO:LB:g=original	!
=34	=34	=34	=34
8BB-\L	4dd-X/)	8f\	.
!	!	!	!LO:HP:b:t=crescendo poco a poco
8d-X\	.	8f\L	<
8c\	(4.ee-/	8g-X\	.
8B-\	.	8dd-\	.
8A-\	.	8cc\	.
8G-X\J	32ff/LLL	8b-\J	.
.	32ee-/	.	.
.	32dd-/	.	.
.	32ee-/JJJ	.	.
=35	=35	=35	=35
8D-X\L	4ff/)	8a-\	.
8f\	.	8a-\L	.
8e-\	(4.ggn/	8b-\	.
8d-X\	.	8ff\	.
8c\	.	8ee-\	.
8B-\J	32aa-/LLL	8dd-X\J	.
.	32gg/	.	.
.	32ff/	.	.
.	32gg/JJJ	.	.
=36	=36	=36	=36
!	!LO:TX:i:b:t=string.	!	!
8F\L	4aa-/)	8cc\	.
8a-\	.	8cc\L	.
8gn\	(4.bb-/	8dd-X\	.
8f\	.	8aa-\	.
8e-\	.	8gg\	.
8d-X\J	32ccc/LLL	8ff\J	.
.	32bb-/	.	.
.	32aa-/	.	.
.	32bb-/JJJ)	.	.
=37	=37	=37	=37
(8c\L	(4.ccc/	8een\L	.
8B-\	.	8gg\	.
8An\	.	8ff#X\	.
8G\	8eee-/	8gg\	.
8F#X\	8ddd/L	8aan\	.
8A\J	8ccc/J	8ff#X\J	.
*	*v	*v	*
!LO:LB:g=original	!LO:LB:g=original	!
=38	=38	=38
!	!	!LO:DY:b:t=più forte
8G\L	8bbnL 8gg\	f
8F\	8ddd 8aa-X\	.
8E-\	8ccc 8gg\	.
8D\	8bb-X 8ff\	.
8C\	8aa- 8ee-\	.
8E-\J)	8ggJ 8cc\)	.
=39	=39	=39
(>8D/L	(8ffL 8dd\	.
!	!LO:TX:i:b:t=riten. sempre	!
8C/	8aa- 8ee-\	.
8BBn/	8gg 8dd\	.
8AA-/	8ff 8cc\	.
8GG/	8ee- 8bn\	.
8FF/J	8ddJ 8a-\	.
=40	=40	=40
8EE-/L	8ccL 8g/	.
8FF/J	8a- 8f/	.
4GG/	8g 8e-/	.
.	8f 8d/	.
4GGG/)	8e- 8c/	.
.	8dJ 8Bn/)	.
=41	=41	=41
!	!LO:TX:B:a:t=a tempo	!
(8CC/L	4c/	ff
8E- 8EE-/	.	.
8A- 8AA-/	(4cc 4c~/	.
8G 8GG/	.	.
8F#X 8FF#X/	4dd 4d~/)	.
8DJ 8DD/)	.	.
=42	=42	=42
*	*^	*
(8FnL 8FFn/	2.g [<2.G^/	8r	.
8D 8DD/	.	8f\L	.
8C 8CC/	.	8e-\	.
8BBn 8BBBn/	.	8d\	.
8C 8CC/	.	8e-\	.
8DJ 8DD/)	.	8f\J	.
*	*v	*v	*
!LO:LB:g=original	!LO:LB:g=original	!
=43	=43	=43
(8E-L 8EE-/	4g 4G/]	.
8C 8CC/	.	.
8A- 8AA-/	(4cc 4c~/	.
8G 8GG/	.	.
8F#X 8FF#X/	4dd 4d~/)	.
8DJ 8DD/)	.	.
=44	=44	=44
*	*^	*
(8FnL 8FFn/	2.g [<2.G^/	8r	.
8D 8DD/	.	8f\L	.
8C 8CC/	.	8e-\	.
8BBn 8BBBn/	.	8d\	.
8C 8CC/	.	8e-\	.
8DJ 8DD/)	.	8f\J	.
=45	=45	=45	=45
(8E-L 8EE-/	4ryy	4g/ 4G/]	.
8C 8CC/	.	.	.
8A- 8AA-/	(4cc/	8c\L	.
8F 8FF/	.	8a-\	.
8B- 8BB-/	4dd/	8g\	.
8A-J 8AA-/)	.	8f\J	.
=46	=46	=46	=46
(8GL 8GG\	4ee-/)	8e-\L	.
8e- 8E-\	.	16f\L	.
.	.	16g\JJ	.
8c 8C\	(4.ff/	8a-\L	.
8c-X 8C-X\	.	8ee-\	.
8B- 8BB-\	.	8dd\	.
8A-J 8AA-\)	32gg/LLL	8cc\J	.
.	32ff/	.	.
.	32ee-/	.	.
.	32ff/JJJ	.	.
!LO:PB:g=original	!LO:PB:g=original	!LO:PB:g=original	!
=47	=47	=47	=47
8GL 8GG\	4gg/)	8bn\L	.
8e- 8E-\	.	8g\	.
8d 8D\	(4.ff/	8a-\	.
8c 8C\	.	8ee-\	.
8B- 8BB-\	.	8dd\	.
8A-J 8AA-\	32gg/LLL	8cc\J	.
.	32ff/	.	.
.	32ee-/	.	.
.	32ff/JJJ)	.	.
=48	=48	=48	=48
(8GL 8GG\	(2gg/	8bn\L	.
8f 8F\	.	16cc\L	>
.	.	16dd\JJ	.
8e- 8E-\	.	8cc\L	.
8d 8D\	.	8dd\J	.
8c 8C\	8gg/L)	[4ee-\	.
8B-J 8BB-\)	(16aa-/L	.	.
.	16bb-/JJ	.	]
=49	=49	=49	=49
(>8A-XL 8AA-X/	8ccc/L	4.ee-\]	p
8F 8FF/	8aa-/J)	.	.
8B- 8BB-/	4ff/	.	.
8A- 8AA-/	.	16dd\LL	.
.	.	16cc\JJ	.
8G 8GG/	(8bb-/L	[4b-\	.
8FJ 8FF/)	8aa-/J	.	.
=50	=50	=50	=50
(>8E-L 8EE-/	8gg/L	4.b-\]	.
8C 8CC/	8ee-/J)	.	.
8F 8FF/	(4cc/	.	.
8E- 8EE-/	.	16a-\LL	.
.	.	16g\JJ	.
8D-X 8DD-X/	8ff/L	[4f\	.
8CJ 8CC/)	8ee-/J	.	.
!LO:LB:g=original	!LO:LB:g=original	!LO:LB:g=original	!
=51	=51	=51	=51
!	!	!	!LO:HP:b:t=dimin.
(>8BBnL 8BBBn/	8ddn/L	4.f\]	>
8GG 8GGG/	8bn/J	.	.
8C 8CC/	4g/	.	.
8BB-X 8BBB-X/	.	16e-\LL	.
.	.	16d\JJ	.
8AA- 8AAA-/	8cc/L	[4c\	.
8GGJ 8GGG/)	8b-X/J)	.	.
=52	=52	=52	=52
(4FF 4FFF/	(2a-/	8c\L]	.
.	.	16d\L	.
.	.	16e-\JJ	.
4FF#X 4FFF#X/	.	8d\L	.
.	.	8c\	.
4GG 4GGG/)	8g/L	8Bn\	.
.	8fn/J)	8d\J	.
*	*v	*v	*
=53	=53	=53
4C 4CC/	8e- 8c/	.
.	(8ggL 8ee-\	p
(4c\	8aa- 8cc\	.
.	8gg 8ee-\	.
4d\	8ff#X 8an\	.
.	8ddJ 8cc\	.
=54	=54	=54
*^	*	*
2.G/)	4r	8ggL 8bn\	.
.	.	8ffn 8a-X\	.
.	4GG\	8ee- 8g\	.
.	.	8dd 8f\	.
.	[>4G\	8cc 8e-\	.
.	.	8bJ 8d\)	.
!LO:LB:g=original	!LO:LB:g=original	!LO:LB:g=original	!
=55	=55	=55	=55
4ryy	4G\] 4C\	(8ccL 8e-\	.
.	.	8gg 8ee-\	pp
(4c\	2ryy	8aa- 8cc\	.
.	.	8gg-X 8ee-\	.
4d-X\	.	8ff 8a-\	.
.	.	8dd-XJ 8cc-X\	.
=56	=56	=56	=56
2G-X/	4r	8gg-XL 8b-X\	.
.	.	8ff 8a-\	.
.	(4GG-X\	8ee- 8g-X\	.
.	.	8dd-X 8f\	.
4F/)	4GGn\)	8cc 8e-\	.
.	.	8bnJ 8dn\)	.
=57	=57	=57	=57
*ped	*	*	*
!	!	!LO:TX:i:b:t=con duolo	!
!LO:N:vis=2.	!	!	!
8C/L	2.C\	8cc 8c/	.
8G/	.	(4bb- 4b-^\	.
8d-X/	.	.	.
*Xped	*	*	*
8G/	.	4ff 4f\	.
8c/	.	.	.
8G/J	.	8een 8en\)	.
=58	=58	=58	=58
*ped	*	*	*
!LO:N:vis=2.	!	!	!
8C/L	2.C\	8r	.
8F/	.	(4aa- 4a-^\	.
8c/	.	.	.
*Xped	*	*	*
8F/	.	4ee- 4e-/	.
8Bn/	.	.	.
8F/J	.	8ddn 8dn/)	.
!LO:LB:g=original	!LO:LB:g=original	!LO:LB:g=original	!
=59	=59	=59	=59
*ped	*	*	*
!LO:N:vis=2.	!	!	!LO:HP:b:t=crescendo
8C/L	2.C\	8r	<
8En/	.	(4gg 4g^\	.
8B-/	.	.	.
*Xped	*	*	*
8E/	.	4dd-X 4d-X/	.
8An/	.	.	.
8E-X/J	.	8cc 8c/)	.
=60	=60	=60	=60
*ped	*	*	*
!LO:N:vis=2.	!	!	!
8C/L	2.C\	8r	.
8D/	.	(4gg 4g^\	.
8A-/	.	.	.
*Xped	*	*	*
8D/	.	4cc 4c/	.
8A-/	.	.	.
8F/J	.	8cc 8c/)	.
=61	=61	=61	=61
*^	*	*^	*
*	*	*^	*	*^	*
*ped	*	*	*	*	*	*	*
!LO:N:vis=2	!	!	!	!	!	!	!
8C/L	4ryy	8ryy	[2C\	[2.cc/	2c\	2ryy	f
!	!	!LO:N:vis=4	!	!	!	!	!
8D/	.	[<4.D\	.	.	.	.	.
8F/	[4F\	.	.	.	.	.	.
[<8A-/J	.	.	.	.	.	.	.
4A-/_]	4F\_>]	4D\_<]	4C\_]	.	8d\L	[<4d/	.
.	.	.	.	.	[8f\J	.	.
*	*	*	*	*	*v	*v	*
=62	=62	=62	=62	=62	=62	=62
2.A-\_	2.F\_>	2.D\_<	2.C\_	8cc/L]	4a- 4f] 4d\]	.
.	.	.	.	(8cc/	.	.
.	.	.	.	8bn/	4r	.
.	.	.	.	8cc/	.	.
.	.	.	.	8ff/	4r	>
.	.	.	.	8dd/J	.	.
!LO:LB:g=original	!LO:LB:g=original	!LO:LB:g=original	!LO:LB:g=original	!LO:LB:g=original	!LO:LB:g=original	!
=63	=63	=63	=63	=63	=63	=63
*Xped	*	*	*	*	*	*
4A-/]	4F/]	4D/]	4C\]	4cc/)	4r	]
(4F/ 4D\	4ryy	4ryy	[2C\	[2bn/	4a- 4f\	pp
4G/ 4En\	4ryy	4ryy	.	.	4g 4en\	.
*v	*v	*	*	*	*	*
*	*v	*v	*	*	*
=64	=64	=64	=64	=64
*ped	*	*	*	*
2.A-/) 2.F/	2.C\]	8b/L]	2.f 2.d\	.
.	.	8bn/	.	<
.	.	8a#X/	.	.
*Xped	*	*	*	*
.	.	8b/	.	[[
.	.	8dd/	.	>
.	.	8a-X/J	.	]]
*v	*v	*	*	*
=65	=65	=65	=65
8r	[2.g/	[2.en\	pp
*ped	*	*	*
!	!LO:TX:i:b:t=una corda	!	!
(8CC/L	.	.	.
8GG/	.	.	.
8C/	.	.	.
8En/	.	.	.
8G/J	.	.	.
=66	=66	=66	=66
8c\)	8g/L]	8e\]	.
8r	(8en/	2ryy	.
4r	8g/	.	.
.	8cc/	.	.
4r	8een/	.	.
.	8gg/J	8ryy	.
*	*v	*v	*
=67	=67	=67
*	*	*^
4g 4c\	4ccc 4een\)	.	.
!	!	!	!LO:DY:b=2
!	!	!LO:DY:b	!
4C 4CC/	4c/	ppp	ppp
4C 4CC/	4c/	.	.
*	*	*v	*v
=68	=68	=68
*Xped	*	*
2.C 2.CC/	2.c/	.
==	==	==
*-	*-	*-
!!!system-decoration: {(s1,s2)}
!!!RDF**kern: > = above
!!!RDF**kern: < = below
!!!RDF**kern: N = link
!!!ENC: Marta Opryszak
!!!END: 2022-03-06
!!!ENC: Kamil Watkowski
!!!END: 2022-03-07
